icons/Color/scalable/gimp-selection-none.svg

<svg height="16" viewBox="0 0 16 16" width="16" xmlns="http://www.w3.org/2000/svg"><path d="m4.9404725 4.0005025a.93993148.93572007 0 0 0 -.6592446 1.6032235l2.3866639 2.3911972-2.3866639 2.3886608a.94045969.93624592 0 0 0 1.3333595 1.32069l2.3792289-2.3837131 2.3792297 2.3837131a.94085554.93663999 0 1 0 1.333359-1.32069l-2.3866643-2.3886608 2.3866643-2.3911972a.93993148.93572007 0 0 0 -.688985-1.6032235.93993148.93572007 0 0 0 -.644374.2849442l-2.3792297 2.3813014-2.3792289-2.3813014a.93993148.93572007 0 0 0 -.6741149-.2849442z" fill="#c00"/><path d="m.50002188.50002151h14.99995612v14.99995649h-14.99995612z" fill="none" stroke="#000"/><g fill="#fff"><path d="m1 0h3v1h-3z"/><path d="m6.5 0h3v1h-3z"/><path d="m12 0h3v1h-3z"/><g transform="matrix(0 1 -1 0 16 0)"><path d="m1 0h3v1h-3z"/><path d="m6.5 0h3v1h-3z"/><path d="m12 0h3v1h-3z"/></g><g transform="matrix(0 1 -1 0 1 0)"><path d="m1 0h3v1h-3z"/><path d="m6.5 0h3v1h-3z"/><path d="m12 0h3v1h-3z"/></g><path d="m1 15h3v1h-3z"/><path d="m6.5 15h3v1h-3z"/><path d="m12 15h3v1h-3z"/></g></svg>

<?xml version="1.0" encoding="UTF-8" standalone="no"?>
<!-- Created with Inkscape (http://www.inkscape.org/) -->

<svg
   xmlns:dc="http://purl.org/dc/elements/1.1/"
   xmlns:cc="http://creativecommons.org/ns#"
   xmlns:rdf="http://www.w3.org/1999/02/22-rdf-syntax-ns#"
   xmlns:svg="http://www.w3.org/2000/svg"
   xmlns="http://www.w3.org/2000/svg"
   xmlns:sodipodi="http://sodipodi.sourceforge.net/DTD/sodipodi-0.dtd"
   xmlns:inkscape="http://www.inkscape.org/namespaces/inkscape"
   inkscape:export-ydpi="90.000000"
   inkscape:export-xdpi="90.000000"
   inkscape:export-filename="/home/jimmac/src/cvs/gnome/gimp/themes/Default/images/stock-layers-16.png"
   width="16"
   height="16"
   id="svg11300"
   sodipodi:version="0.32"
   inkscape:version="0.91+devel r"
   sodipodi:docname="gimp-selection-none.svg"
   version="1.0"
   viewBox="0 0 16 16">
  <sodipodi:namedview
     inkscape:cy="8"
     inkscape:cx="8"
     inkscape:zoom="51.3125"
     inkscape:window-height="1016"
     inkscape:window-width="1920"
     inkscape:pageshadow="2"
     inkscape:pageopacity="0.0"
     borderopacity="0.17254902"
     bordercolor="#666"
     pagecolor="#ffffff"
     id="base"
     inkscape:showpageshadow="false"
     showborder="true"
     inkscape:window-x="0"
     inkscape:window-y="27"
     inkscape:current-layer="layer1"
     width="16px"
     height="16px"
     showgrid="true"
     inkscape:window-maximized="1"
     inkscape:document-units="px"
     inkscape:snap-global="false">
    <inkscape:grid
       type="xygrid"
       id="grid4364" />
  </sodipodi:namedview>
  <defs
     id="defs3" />
  <sodipodi:namedview
     stroke="#ef2929"
     fill="#eeeeec"
     pagecolor="#ffffff"
     bordercolor="#666666"
     borderopacity="0.25490196"
     inkscape:pageopacity="0.0"
     inkscape:pageshadow="2"
     inkscape:zoom="1"
     inkscape:cx="-14.198652"
     inkscape:cy="-5.1663457"
     inkscape:current-layer="layer1"
     showgrid="false"
     inkscape:grid-bbox="true"
     inkscape:document-units="px"
     inkscape:showpageshadow="false"
     inkscape:window-width="872"
     inkscape:window-height="659"
     inkscape:window-x="403"
     inkscape:window-y="296"
     width="32px"
     height="32px"
     id="namedview73" />
  <metadata
     id="metadata4">
    <rdf:RDF>
      <cc:Work
         rdf:about="">
        <dc:format>image/svg+xml</dc:format>
        <dc:type
           rdf:resource="http://purl.org/dc/dcmitype/StillImage" />
        <dc:creator>
          <cc:Agent>
            <dc:title />
          </cc:Agent>
        </dc:creator>
        <dc:source />
        <cc:license
           rdf:resource="http://creativecommons.org/licenses/by-sa/2.0/" />
        <dc:title />
      </cc:Work>
      <cc:License
         rdf:about="http://creativecommons.org/licenses/by-sa/2.0/">
        <cc:permits
           rdf:resource="http://web.resource.org/cc/Reproduction" />
        <cc:permits
           rdf:resource="http://web.resource.org/cc/Distribution" />
        <cc:requires
           rdf:resource="http://web.resource.org/cc/Notice" />
        <cc:requires
           rdf:resource="http://web.resource.org/cc/Attribution" />
        <cc:permits
           rdf:resource="http://web.resource.org/cc/DerivativeWorks" />
        <cc:requires
           rdf:resource="http://web.resource.org/cc/ShareAlike" />
      </cc:License>
    </rdf:RDF>
  </metadata>
  <g
     id="layer1"
     inkscape:label="Layer 1"
     inkscape:groupmode="layer">
    <g
       id="g4386">
      <path
         style="color:#000000;font-style:normal;font-variant:normal;font-weight:normal;font-stretch:normal;font-size:medium;line-height:normal;font-family:sans-serif;text-indent:0;text-align:start;text-decoration:none;text-decoration-line:none;text-decoration-style:solid;text-decoration-color:#000000;letter-spacing:normal;word-spacing:normal;text-transform:none;writing-mode:lr-tb;direction:ltr;baseline-shift:baseline;text-anchor:start;white-space:normal;clip-rule:nonzero;display:inline;overflow:visible;visibility:visible;opacity:1;isolation:auto;mix-blend-mode:normal;color-interpolation:sRGB;color-interpolation-filters:linearRGB;solid-color:#000000;solid-opacity:1;fill:#cc0000;fill-opacity:1;fill-rule:nonzero;stroke:none;stroke-width:2.34901142;stroke-linecap:round;stroke-linejoin:miter;stroke-miterlimit:4;stroke-dasharray:none;stroke-dashoffset:0;stroke-opacity:1;color-rendering:auto;image-rendering:auto;shape-rendering:auto;text-rendering:auto;enable-background:accumulate"
         d="M 4.9404725,4.0005025 A 0.93993148,0.93572007 0 0 0 4.2812279,5.603726 L 6.6678918,7.9949232 4.2812279,10.383584 a 0.94045969,0.93624592 0 0 0 1.3333595,1.32069 L 7.9938163,9.3205609 10.373046,11.704274 a 0.94085554,0.93663999 0 1 0 1.333359,-1.32069 L 9.3197407,7.9949232 11.706405,5.603726 A 0.93993148,0.93572007 0 0 0 11.01742,4.0005025 0.93993148,0.93572007 0 0 0 10.373046,4.2854467 L 7.9938163,6.6667481 5.6145874,4.2854467 A 0.93993148,0.93572007 0 0 0 4.9404725,4.0005025 Z"
         id="path6388-7-7-4-7"
         inkscape:connector-curvature="0" />
      <g
         id="g4300">
        <g
           id="g4280">
          <path
             inkscape:connector-curvature="0"
             id="rect4014-3"
             d="M 0.50002188,0.50002151 H 15.499978 V 15.499978 H 0.50002188 Z"
             style="opacity:1;fill:none;fill-opacity:1;stroke:#000000;stroke-width:1;stroke-miterlimit:4;stroke-dasharray:none;stroke-opacity:1" />
          <g
             id="g4352">
            <rect
               style="opacity:1;fill:#ffffff;fill-opacity:1;stroke:none;stroke-width:0.77013868;stroke-miterlimit:4;stroke-dasharray:none;stroke-opacity:1"
               id="rect4032"
               width="3"
               height="1"
               x="1"
               y="0" />
            <rect
               style="opacity:1;fill:#ffffff;fill-opacity:1;stroke:none;stroke-width:0.77013868;stroke-miterlimit:4;stroke-dasharray:none;stroke-opacity:1"
               id="rect4032-0"
               width="3"
               height="1"
               x="6.5"
               y="0" />
            <rect
               style="opacity:1;fill:#ffffff;fill-opacity:1;stroke:none;stroke-width:0.77013868;stroke-miterlimit:4;stroke-dasharray:none;stroke-opacity:1"
               id="rect4032-66"
               width="3"
               height="1"
               x="12"
               y="0" />
          </g>
          <g
             transform="rotate(90,8,8)"
             id="g4352-4">
            <rect
               style="opacity:1;fill:#ffffff;fill-opacity:1;stroke:none;stroke-width:0.77013868;stroke-miterlimit:4;stroke-dasharray:none;stroke-opacity:1"
               id="rect4032-9"
               width="3"
               height="1"
               x="1"
               y="0" />
            <rect
               style="opacity:1;fill:#ffffff;fill-opacity:1;stroke:none;stroke-width:0.77013868;stroke-miterlimit:4;stroke-dasharray:none;stroke-opacity:1"
               id="rect4032-0-7"
               width="3"
               height="1"
               x="6.5"
               y="0" />
            <rect
               style="opacity:1;fill:#ffffff;fill-opacity:1;stroke:none;stroke-width:0.77013868;stroke-miterlimit:4;stroke-dasharray:none;stroke-opacity:1"
               id="rect4032-66-5"
               width="3"
               height="1"
               x="12"
               y="0" />
          </g>
          <g
             transform="rotate(90,0.5,0.5)"
             id="g4352-4-0">
            <rect
               style="opacity:1;fill:#ffffff;fill-opacity:1;stroke:none;stroke-width:0.77013868;stroke-miterlimit:4;stroke-dasharray:none;stroke-opacity:1"
               id="rect4032-9-3"
               width="3"
               height="1"
               x="1"
               y="0" />
            <rect
               style="opacity:1;fill:#ffffff;fill-opacity:1;stroke:none;stroke-width:0.77013868;stroke-miterlimit:4;stroke-dasharray:none;stroke-opacity:1"
               id="rect4032-0-7-2"
               width="3"
               height="1"
               x="6.5"
               y="0" />
            <rect
               style="opacity:1;fill:#ffffff;fill-opacity:1;stroke:none;stroke-width:0.77013868;stroke-miterlimit:4;stroke-dasharray:none;stroke-opacity:1"
               id="rect4032-66-5-2"
               width="3"
               height="1"
               x="12"
               y="0" />
          </g>
          <g
             transform="translate(0,15)"
             id="g4352-3">
            <rect
               style="opacity:1;fill:#ffffff;fill-opacity:1;stroke:none;stroke-width:0.77013868;stroke-miterlimit:4;stroke-dasharray:none;stroke-opacity:1"
               id="rect4032-2"
               width="3"
               height="1"
               x="1"
               y="0" />
            <rect
               style="opacity:1;fill:#ffffff;fill-opacity:1;stroke:none;stroke-width:0.77013868;stroke-miterlimit:4;stroke-dasharray:none;stroke-opacity:1"
               id="rect4032-0-3"
               width="3"
               height="1"
               x="6.5"
               y="0" />
            <rect
               style="opacity:1;fill:#ffffff;fill-opacity:1;stroke:none;stroke-width:0.77013868;stroke-miterlimit:4;stroke-dasharray:none;stroke-opacity:1"
               id="rect4032-66-6"
               width="3"
               height="1"
               x="12"
               y="0" />
          </g>
        </g>
      </g>
    </g>
  </g>
</svg>
